styles/1/Numix/64/places/orange-network.svg

<?xml version="1.0" encoding="UTF-8" standalone="no"?>
<!-- Created with Inkscape (http://www.inkscape.org/) -->

<svg
   xmlns:dc="http://purl.org/dc/elements/1.1/"
   xmlns:cc="http://creativecommons.org/ns#"
   xmlns:rdf="http://www.w3.org/1999/02/22-rdf-syntax-ns#"
   xmlns:svg="http://www.w3.org/2000/svg"
   xmlns="http://www.w3.org/2000/svg"
   xmlns:sodipodi="http://sodipodi.sourceforge.net/DTD/sodipodi-0.dtd"
   xmlns:inkscape="http://www.inkscape.org/namespaces/inkscape"
   width="64"
   height="64"
   id="svg2"
   version="1.1"
   inkscape:version="0.91 r"
   sodipodi:docname="orange-network.svg"
   inkscape:export-filename="/media/Data/Main/Visuals/Icons/Numix/Desktop/repos/numix-wiki/Gjorgi/Numix-folders/48/New/folder-144.png"
   inkscape:export-xdpi="270"
   inkscape:export-ydpi="270">
  <defs
     id="defs4" />
  <sodipodi:namedview
     id="base"
     pagecolor="#ffffff"
     bordercolor="#666666"
     borderopacity="1.0"
     inkscape:pageopacity="0.0"
     inkscape:pageshadow="2"
     inkscape:zoom="5.2755363"
     inkscape:cx="16.038865"
     inkscape:cy="16.29906"
     inkscape:document-units="px"
     inkscape:current-layer="layer1"
     showgrid="true"
     inkscape:window-width="1280"
     inkscape:window-height="998"
     inkscape:window-x="0"
     inkscape:window-y="0"
     inkscape:window-maximized="1"
     showguides="true"
     inkscape:guide-bbox="true">
    <inkscape:grid
       type="xygrid"
       id="grid2985"
       empspacing="5"
       visible="true"
       enabled="true"
       snapvisiblegridlinesonly="true" />
  </sodipodi:namedview>
  <metadata
     id="metadata7">
    <rdf:RDF>
      <cc:Work
         rdf:about="">
        <dc:format>image/svg+xml</dc:format>
        <dc:type
           rdf:resource="http://purl.org/dc/dcmitype/StillImage" />
        <dc:title />
      </cc:Work>
    </rdf:RDF>
  </metadata>
  <g
     inkscape:label="Layer 1"
     inkscape:groupmode="layer"
     id="layer1"
     transform="translate(0,-988.3622)">
    <path
       style="font-size:medium;font-style:normal;font-variant:normal;font-weight:normal;font-stretch:normal;text-indent:0;text-align:start;text-decoration:none;line-height:normal;letter-spacing:normal;word-spacing:normal;text-transform:none;direction:ltr;block-progression:tb;writing-mode:lr-tb;text-anchor:start;baseline-shift:baseline;color:#000000;fill:#f57c00;fill-opacity:1;fill-rule:nonzero;stroke:none;stroke-width:2.28612947;marker:none;visibility:visible;display:inline;overflow:visible;enable-background:accumulate;font-family:Sans;-inkscape-font-specification:Sans"
       d="M 6.0625 10 C 4.933085 10.1109 3.981587 11.17777 4 12.3125 L 4 51.6875 C 3.986 52.9021 5.097925 54.0139 6.3125 54 L 57.6875 54 C 58.902076 54.014 60.013966 52.9021 60 51.6875 L 60 16.3125 C 60.014 15.0979 58.902076 13.9861 57.6875 14 L 38 14 L 38 12.3125 C 38.01375 11.11867 36.943717 10.019 35.75 10 L 6.3125 10 C 6.22925 10 6.14575 9.9999 6.0625 10 z M 30.5 22 L 32 22 C 38.617985 22 44 27.3822 44 34 C 44 40.6178 38.617546 46 30.5 46 C 25.381594 46 20 40.6178 20 34 C 20 27.3822 25.381586 22 30.5 22 z M 32.96875 23.6875 C 32.96205 23.74 32.97475 23.7535 32.96875 23.8125 C 32.861607 24.8304 32.33929 24.142 32.125 24.25 C 31.910714 24.3572 30.46875 26.3393 30.46875 26.125 C 30.46875 25.9106 30.71875 25.59375 30.71875 25.59375 C 30.71875 25.59375 30.826705 24.68865 30.65625 23.71875 C 30.190371 23.77925 29.694443 23.88 29.25 24 L 27.875 26.28125 C 27.994779 26.29925 28.126564 26.3495 28.28125 26.4375 C 29.031251 26.8662 29.348211 27.22825 29.5625 27.28125 C 29.776788 27.33535 30.758932 25.9914 30.0625 27.4375 C 29.366071 28.8841 29.022324 29.3659 28.21875 29.6875 C 28.168531 29.7025 28.11213 29.69475 28.0625 29.71875 C 27.857171 29.96485 27.597241 30.2535 27.25 30.5625 C 26.492388 31.2381 26.125 31.29395 26.125 31.96875 C 26.125 32.64395 26.12408 33.1623 25.59375 34.0625 C 25.063424 34.9625 24.678963 34.98095 24.90625 35.65625 C 25.133541 36.33125 25.285059 37.525 24.90625 37 C 24.527441 36.4751 24.678048 35.43185 24.375 36.03125 C 24.109834 36.55655 23.48517 36.7731 23.4375 37.3125 C 23.4308 37.3865 23.41848 37.43625 23.4375 37.53125 C 23.44129 37.54625 23.4949 37.5385 23.5 37.5625 C 23.694457 38.2117 24.75 37.3001 24.75 37.8125 C 24.75 38.3372 23.835211 38.3623 24.0625 38.8125 C 24.289785 39.2622 25.117387 37.9009 25.875 38.125 C 26.632606 38.35 26.193147 38.5123 26.875 38.8125 C 27.556851 39.1126 27.90625 39.39375 27.90625 39.84375 C 27.90625 40.29385 30.039789 40.0622 29.8125 40.8125 C 29.585217 41.5625 29.369353 41.4251 28.6875 42.25 C 28.311876 42.7046 28.03283 42.9684 27.8125 43.1875 C 28.121371 43.4136 28.138394 43.52625 28.5 43.40625 C 28.982133 43.24575 28.406246 43.0267 28.78125 42.8125 C 28.874997 42.7585 28.9135 42.70325 28.96875 42.65625 C 29.023995 42.61175 29.073665 42.5965 29.1875 42.5625 C 29.415181 42.4955 29.861605 42.4375 30.90625 42.4375 C 32.995533 42.4375 34.03125 42.5625 34.03125 42.5625 C 34.03125 42.5625 34.705361 42.4993 34.0625 42.875 C 33.592721 43.1486 32.65113 43.65075 32.53125 43.78125 C 32.578326 43.77625 32.66071 43.784 32.78125 43.75 C 33.745536 43.482 35.0625 43.26425 35.4375 43.15625 C 35.596393 43.11105 36.438249 42.6869 37.125 42.375 C 37.15301 42.3101 37.19052 42.2525 37.21875 42.1875 L 37.1875 42.1875 C 36.657169 41.9605 36.192215 40.89675 36.34375 40.59375 C 36.495271 40.29075 36.87119 40.03885 37.25 39.28125 C 37.628809 38.52325 37.56066 39.08225 36.5 37.71875 C 35.439341 36.35475 34.905332 37.79805 34.375 37.34375 C 33.84467 36.88905 32.704567 36.48965 32.25 35.65625 C 31.795423 34.82255 32.03125 35.44055 32.03125 34.53125 C 32.03125 33.62025 31.960213 34.3208 32.1875 33.5625 C 32.414783 32.8055 32.992385 32.68675 33.75 32.15625 C 33.854169 32.08105 33.987835 32.053 34.09375 32 C 33.924009 31.8388 33.723203 31.50445 33.25 31.03125 C 33.25 31.03125 33.683691 30.05805 34.0625 29.90625 C 34.430165 29.76175 34.658439 29.8575 35.15625 30 C 35.17738 29.9187 35.1644 29.8731 35.1875 29.6875 C 35.263256 29.081 34.96875 29.4411 34.96875 29.0625 C 34.96875 28.6836 35.157172 29.05805 35.6875 28.90625 C 36.217834 28.75475 36.188419 27.69195 36.71875 27.84375 C 37.24908 27.99545 37.232931 27.6193 37.6875 26.9375 C 38.14207 26.255 37.699844 26.64685 37.09375 26.34375 C 36.487659 26.04065 37.026536 26.7826 36.875 27.3125 C 36.72348 27.8428 36.280329 27.5737 35.75 26.4375 C 35.219675 25.3011 35.665703 25.7214 35.96875 24.8125 C 36.021785 24.6529 36.08041 24.56375 36.15625 24.46875 C 35.170984 24.04005 34.087263 23.791 32.96875 23.6875 z M 34.875 27.71875 C 34.91917 27.7109 34.96153 27.738 35 27.75 C 35.230837 27.7854 35.41761 27.99255 35.53125 28.21875 C 35.591845 28.34255 35.50781 28.37725 35.4375 28.40625 C 35.4375 28.40625 35.5625 28.675 35.5625 28.75 C 35.5625 28.825 35.391115 28.81375 35.03125 28.71875 C 34.761366 28.64885 34.973351 28.5725 35.15625 28.4375 L 34.8125 28.4375 C 34.679918 28.4375 34.62568 28.43025 34.59375 28.40625 C 34.61391 28.42225 34.59222 28.3985 34.625 28.4375 C 34.795462 28.646 34.621225 28.5075 34.375 28.5625 C 34.128787 28.6194 34.355125 28.42835 34.46875 28.21875 C 34.46875 28.21875 34.56558 28.29575 34.59375 28.34375 C 34.64109 28.23955 34.75 28.04645 34.75 27.78125 C 34.797345 27.76165 34.83083 27.7266 34.875 27.71875 z M 40.75 28.375 C 40.371331 28.6559 39.867264 29.2888 39.46875 29.6875 C 38.786898 30.3683 39.839941 30.423 40.21875 30.5 C 40.597559 30.5765 40.961133 30.375 41.71875 30.375 C 41.70533 30.3395 41.70145 30.286 41.6875 30.25 C 41.584992 30.262 41.46795 30.28125 41.34375 30.28125 C 40.899511 30.28125 41.14569 29.88635 41.25 29.28125 C 41.091869 28.97145 40.937375 28.6662 40.75 28.375 z M 35.875 29.75 C 35.730397 29.788677 35.560391 29.937775 35.34375 30.0625 C 35.548839 30.3616 34.925206 31.18425 34.59375 31.78125 C 34.58046 31.79625 34.5748 31.7885 34.5625 31.8125 C 35.212212 31.7039 36.171124 31.90235 38.4375 32.46875 C 38.4375 32.46875 39.317219 32.22855 39.46875 32.53125 C 39.522582 32.63715 39.778267 32.69475 40.125 32.71875 C 41.040803 32.35795 40.59375 32.07415 40.59375 31.34375 C 40.59375 30.58625 39.473466 31.40985 39.625 31.03125 C 39.776526 30.65255 39.436581 30.6553 38.90625 30.125 C 38.375919 29.5946 38.441305 31.5034 38.0625 31.125 C 37.683688 30.7498 37.714033 31.053 37.5625 30.75 C 37.410979 30.4469 36.875 29.90625 36.875 29.90625 C 36.875 29.90625 37.26327 30.367 37.1875 31.125 C 37.111738 31.8822 36.0625 31.1875 36.0625 31.1875 C 36.0625 31.1875 36.196952 31.10625 36.5 31.03125 C 36.803044 30.95535 36.414789 30.5306 36.1875 30 C 36.130698 29.8714 36.06982 29.773 36 29.75 C 35.960071 29.7379 35.923201 29.737108 35.875 29.75 z M 42.375 33.5625 C 42.290806 33.6235 42.19794 33.6485 42.09375 33.6875 C 41.260373 33.9907 40.65625 34.6875 40.65625 34.6875 C 40.65625 34.6875 41.630883 34.67485 42.3125 35.28125 C 42.36194 34.86845 42.375 34.4265 42.375 34 C 42.375 33.8462 42.3817 33.7142 42.375 33.5625 z "
       transform="translate(0,988.3622)"
       id="path3912" />
  </g>
</svg>

<!-- Created with Inkscape (http://www.inkscape.org/) -->
<svg xmlns="http://www.w3.org/2000/svg" viewBox="0 0 64 64">
 <g transform="translate(0,-988.3622)">
  <path d="m 6.06 10 c -1.129 0.111 -2.081 1.178 -2.063 2.313 l 0 39.38 c -0.014 1.215 1.098 2.326 2.313 2.313 l 51.38 0 c 1.215 0.014 2.326 -1.098 2.313 -2.313 l 0 -35.37 c 0.014 -1.215 -1.098 -2.326 -2.313 -2.313 l -19.688 0 l 0 -1.688 c 0.014 -1.194 -1.056 -2.294 -2.25 -2.313 l -29.438 0 c -0.083 0 -0.167 0 -0.25 0 z m 24.438 12 l 1.5 0 c 6.618 0 12 5.382 12 12 c 0 6.618 -5.382 12 -13.5 12 c -5.118 0 -10.5 -5.382 -10.5 -12 c 0 -6.618 5.382 -12 10.5 -12 z m 2.469 1.688 c -0.007 0.052 0.006 0.066 0 0.125 c -0.107 1.018 -0.629 0.329 -0.844 0.438 c -0.214 0.107 -1.656 2.089 -1.656 1.875 c 0 -0.214 0.25 -0.531 0.25 -0.531 c 0 0 0.108 -0.905 -0.063 -1.875 c -0.466 0.061 -0.962 0.161 -1.406 0.281 l -1.375 2.281 c 0.12 0.018 0.252 0.068 0.406 0.156 c 0.75 0.429 1.067 0.791 1.281 0.844 c 0.214 0.054 1.196 -1.29 0.5 0.156 c -0.696 1.447 -1.04 1.928 -1.844 2.25 c -0.05 0.015 -0.107 0.007 -0.156 0.031 c -0.205 0.246 -0.465 0.535 -0.813 0.844 c -0.758 0.676 -1.125 0.731 -1.125 1.406 c 0 0.675 -0.001 1.194 -0.531 2.094 c -0.53 0.9 -0.915 0.918 -0.688 1.594 c 0.227 0.675 0.379 1.869 0 1.344 c -0.379 -0.525 -0.228 -1.568 -0.531 -0.969 c -0.265 0.525 -0.89 0.742 -0.938 1.281 c -0.007 0.074 -0.019 0.124 0 0.219 c 0.004 0.015 0.057 0.007 0.063 0.031 c 0.194 0.649 1.25 -0.262 1.25 0.25 c 0 0.525 -0.915 0.55 -0.688 1 c 0.227 0.45 1.055 -0.912 1.813 -0.688 c 0.758 0.225 0.318 0.387 1 0.688 c 0.682 0.3 1.031 0.581 1.031 1.031 c 0 0.45 2.134 0.218 1.906 0.969 c -0.227 0.75 -0.443 0.613 -1.125 1.438 c -0.376 0.455 -0.655 0.718 -0.875 0.938 c 0.309 0.226 0.326 0.339 0.688 0.219 c 0.482 -0.16 -0.094 -0.38 0.281 -0.594 c 0.094 -0.054 0.132 -0.109 0.188 -0.156 c 0.055 -0.044 0.105 -0.06 0.219 -0.094 c 0.228 -0.067 0.674 -0.125 1.719 -0.125 c 2.089 0 3.125 0.125 3.125 0.125 c 0 0 0.674 -0.063 0.031 0.313 c -0.47 0.274 -1.411 0.776 -1.531 0.906 c 0.047 -0.005 0.129 0.003 0.25 -0.031 c 0.964 -0.268 2.281 -0.486 2.656 -0.594 c 0.159 -0.045 1 -0.469 1.688 -0.781 c 0.028 -0.065 0.066 -0.123 0.094 -0.188 l -0.031 0 c -0.53 -0.227 -0.995 -1.291 -0.844 -1.594 c 0.152 -0.303 0.527 -0.555 0.906 -1.313 c 0.379 -0.758 0.311 -0.199 -0.75 -1.563 c -1.061 -1.364 -1.595 0.079 -2.125 -0.375 c -0.53 -0.455 -1.67 -0.854 -2.125 -1.688 c -0.455 -0.834 -0.219 -0.216 -0.219 -1.125 c 0 -0.911 -0.071 -0.21 0.156 -0.969 c 0.227 -0.757 0.805 -0.876 1.563 -1.406 c 0.104 -0.075 0.238 -0.103 0.344 -0.156 c -0.17 -0.161 -0.371 -0.496 -0.844 -0.969 c 0 0 0.434 -0.973 0.813 -1.125 c 0.368 -0.145 0.596 -0.049 1.094 0.094 c 0.021 -0.081 0.008 -0.127 0.031 -0.313 c 0.076 -0.607 -0.219 -0.246 -0.219 -0.625 c 0 -0.379 0.188 -0.004 0.719 -0.156 c 0.53 -0.151 0.501 -1.214 1.031 -1.063 c 0.53 0.152 0.514 -0.224 0.969 -0.906 c 0.455 -0.683 0.012 -0.291 -0.594 -0.594 c -0.606 -0.303 -0.067 0.439 -0.219 0.969 c -0.152 0.53 -0.595 0.261 -1.125 -0.875 c -0.53 -1.136 -0.084 -0.716 0.219 -1.625 c 0.053 -0.16 0.112 -0.249 0.188 -0.344 c -0.985 -0.429 -2.069 -0.678 -3.188 -0.781 z m 1.906 4.03 c 0.044 -0.008 0.087 0.019 0.125 0.031 c 0.231 0.035 0.418 0.243 0.531 0.469 c 0.061 0.124 -0.023 0.159 -0.094 0.188 c 0 0 0.125 0.269 0.125 0.344 c 0 0.075 -0.171 0.064 -0.531 -0.031 c -0.27 -0.07 -0.058 -0.146 0.125 -0.281 l -0.344 0 c -0.133 0 -0.187 -0.007 -0.219 -0.031 c 0.02 0.016 -0.002 -0.008 0.031 0.031 c 0.17 0.209 -0.004 0.07 -0.25 0.125 c -0.246 0.057 -0.02 -0.134 0.094 -0.344 c 0 0 0.097 0.077 0.125 0.125 c 0.047 -0.104 0.156 -0.297 0.156 -0.563 c 0.047 -0.02 0.081 -0.055 0.125 -0.063 z m 5.875 0.656 c -0.379 0.281 -0.883 0.914 -1.281 1.313 c -0.682 0.681 0.371 0.735 0.75 0.813 c 0.379 0.076 0.742 -0.125 1.5 -0.125 c -0.013 -0.035 -0.017 -0.089 -0.031 -0.125 c -0.103 0.012 -0.22 0.031 -0.344 0.031 c -0.444 0 -0.198 -0.395 -0.094 -1 c -0.158 -0.31 -0.313 -0.615 -0.5 -0.906 z m -4.875 1.375 c -0.145 0.039 -0.315 0.188 -0.531 0.313 c 0.205 0.299 -0.419 1.122 -0.75 1.719 c -0.013 0.015 -0.019 0.007 -0.031 0.031 c 0.65 -0.109 1.609 0.09 3.875 0.656 c 0 0 0.88 -0.24 1.031 0.063 c 0.054 0.106 0.31 0.163 0.656 0.188 c 0.916 -0.361 0.469 -0.645 0.469 -1.375 c 0 -0.758 -1.12 0.066 -0.969 -0.313 c 0.152 -0.379 -0.188 -0.376 -0.719 -0.906 c -0.53 -0.53 -0.465 1.378 -0.844 1 c -0.379 -0.375 -0.348 -0.072 -0.5 -0.375 c -0.152 -0.303 -0.688 -0.844 -0.688 -0.844 c 0 0 0.388 0.461 0.313 1.219 c -0.076 0.757 -1.125 0.063 -1.125 0.063 c 0 0 0.134 -0.081 0.438 -0.156 c 0.303 -0.076 -0.085 -0.501 -0.313 -1.031 c -0.057 -0.129 -0.118 -0.227 -0.188 -0.25 c -0.04 -0.012 -0.077 -0.013 -0.125 0 z m 6.5 3.813 c -0.084 0.061 -0.177 0.086 -0.281 0.125 c -0.833 0.303 -1.438 1 -1.438 1 c 0 0 0.975 -0.013 1.656 0.594 c 0.049 -0.413 0.063 -0.855 0.063 -1.281 c 0 -0.154 0.007 -0.286 0 -0.438 z" transform="translate(0,988.3622)" style="visibility:visible;fill:#f57c00;fill-opacity:1;stroke:none;display:inline;color:#000;fill-rule:nonzero"/>
 </g>
</svg>
